public/img/icon-like.svg

<svg width="20" height="20" viewBox="0 0 20 20" fill="none" xmlns="http://www.w3.org/2000/svg">
<path d="M10.3327 17.205C10.1429 17.3732 9.85724 17.3727 9.66807 17.2037L8.7915 16.421C4.49984 12.6035 1.6665 10.0858 1.6665 6.99591C1.6665 4.4782 3.2665 2.5 5.83317 2.5C7.6464 2.5 8.77156 3.91681 9.6317 4.97403C9.82361 5.20991 10.1761 5.20991 10.368 4.97403C11.2281 3.91681 12.3533 2.5 14.1665 2.5C16.7332 2.5 18.3332 4.4782 18.3332 6.99591C18.3332 10.0858 15.4998 12.6035 11.2082 16.4292L10.3327 17.205Z" stroke="#00A894" stroke-width="2"/>
</svg>

<svg xmlns="http://www.w3.org/2000/svg" width="20" height="20" fill="none" viewBox="0 0 20 20"><path stroke="#00A894" stroke-width="2" d="M10.333 17.205a.5.5 0 0 1-.665-.001l-.876-.783C4.5 12.604 1.666 10.086 1.666 6.996c0-2.518 1.6-4.496 4.166-4.496 1.813 0 2.939 1.417 3.799 2.474a.472.472 0 0 0 .736 0c.86-1.057 1.985-2.474 3.798-2.474 2.567 0 4.167 1.978 4.167 4.496 0 3.09-2.833 5.608-7.125 9.433z"/></svg>
